public/images/slide0.svg

<svg fill="none" height="451" viewBox="0 0 247 451" width="247" xmlns="http://www.w3.org/2000/svg"><path d="m158.875 441v-6.415c.002-5.17-1.183-10.271-3.465-14.91l-1.455-2.96c-2.929-5.964-4.453-12.52-4.455-19.165v-25.6c0-3.94 3.15-7.14 7.03-7.14 3.885 0 7.035 3.2 7.035 7.14m37.5 69.05v-6.395c.01-5.715 5.975-8.625 10.855-11.47 5.58-3.255 10.05-8.51 12.115-14.83 1.355-4.16-2.4-7.775-6.89-7.775s-8.3 3.92-11.55 6.925c-.429.402-.892.765-1.385 1.085-6.34 4.045-14.805-.82-14.805-8.01s8.465-12.055 14.805-8.015c1.58.83 2.885 1.93 3.925 3.075 2.365 2.6 5.48 4.94 9.05 4.94 4.565 0 8.395-3.685 7.04-7.925-1.725-5.322-5.096-9.959-9.627-13.241-4.532-3.282-9.988-5.039-15.583-5.019-4.985 0-7.33 1.41-7.33 1.41l10.725-25.02c1.875-4.645-1.485-9.735-6.43-9.735-2.63 0-5.035 1.51-6.215 3.9l-12.14 24.67m0 0-2.24 4.55m2.24-4.55v-16.665c0-3.945-3.15-7.145-7.03-7.145-3.885 0-7.03 3.2-7.03 7.145v19.05 16.665" stroke="#000" stroke-linecap="round" stroke-linejoin="round" stroke-opacity=".8" stroke-width="4"/><g fill="#000" fill-opacity=".8"><path d="m132 193.008c.793 0 1.554-.315 2.114-.876.561-.56.876-1.321.876-2.114s-.315-1.553-.876-2.114c-.56-.561-1.321-.876-2.114-.876s-1.554.315-2.114.876c-.561.561-.876 1.321-.876 2.114s.315 1.554.876 2.114c.56.561 1.321.876 2.114.876zm14.892 5.012c0 .793-.315 1.554-.876 2.114-.56.561-1.321.876-2.114.876s-1.554-.315-2.114-.876c-.561-.56-.876-1.321-.876-2.114s.315-1.553.876-2.114c.56-.561 1.321-.876 2.114-.876s1.554.315 2.114.876c.561.561.876 1.321.876 2.114zm-14.876 13.012c.394 0 .785-.078 1.15-.229.364-.151.695-.372.974-.651s.5-.61.651-.974c.151-.365.229-.755.229-1.15 0-.394-.078-.785-.229-1.149-.151-.365-.372-.696-.651-.975s-.61-.5-.974-.651c-.365-.151-.756-.229-1.15-.229-.797 0-1.561.317-2.124.88-.564.563-.88 1.327-.88 2.124s.316 1.561.88 2.124c.563.564 1.327.88 2.124.88zm-14.016-38.208c0-4.38 3.58-8.088 8.12-7.808 17.788 1.096 33.388 7.08 45.608 18.748 3.468 3.308 2.784 8.712-.812 11.472-5.596 4.32-11.229 8.591-16.9 12.812v6.96c0 2.868-2.22 6-6 6-.677-.001-1.349-.109-1.992-.32v.332c0 2.852-2.224 5.964-6.012 5.964-3.016 0-5.004-1.984-5.704-4.2-2.192 1.64-4.588 3.424-6.728 5.016-3.96 2.948-9.58.12-9.58-4.8zm28.024 42.184c0 1.036.776 2 1.992 2 1.22 0 2-.972 2-2v-7.976c0-.315.075-.626.218-.907s.351-.524.606-.709c3.12-2.264 8.432-6.3 13.136-9.896-10.772-10.252-25.872-16.336-41.976-16.464v43.94c.001.37.105.733.3 1.047.195.315.473.569.804.735s.701.237 1.07.205c.368-.033.721-.166 1.018-.387 3.144-2.344 6.852-5.104 9.636-7.192.297-.223.65-.358 1.02-.392.37-.033.742.037 1.074.203.333.166.612.422.807.738.196.316.299.68.299 1.051v2.016c0 .988.76 1.968 1.984 1.968.262.007.523-.04.767-.136s.466-.24.653-.423c.187-.184.336-.403.437-.645s.152-.502.151-.764v-6.012c0-.53.211-1.039.586-1.414s.884-.586 1.414-.586 1.039.211 1.414.586.59.884.59 1.414zm22.448-22.94c1.86-1.428 2-3.972.488-5.416-11.428-10.908-26.08-16.6-43.088-17.648-2.072-.128-3.872 1.576-3.872 3.82v2.232c17.308.132 33.612 6.748 45.188 18z"/><path d="m30.1918 28.7401c.1974.0307.399.0218.5929-.0264s.3762-.1346.5362-.2543c.1601-.1196.2946-.2699.3957-.4423.1011-.1723.1668-.3631.1932-.5611.0263-.198.0129-.3994-.0396-.5921-.0525-.1928-.143-.3731-.2661-.5305-.1231-.1573-.2765-.2884-.451-.3857s-.3667-.1587-.5653-.1807c-2.82-.375-5.34 1.7671-5.34 4.8931 0 .3978.1581.7793.4394 1.0606s.6628.4394 1.0606.4394.7794-.1581 1.0607-.4394.4393-.6628.4393-1.0606c0-1.371.984-2.0491 1.944-1.92zm1.032 16.155c3.5765 0 7.0064-1.4208 9.5354-3.9497 2.5289-2.5289 3.9496-5.9589 3.9496-9.5353 0-3.5765-1.4207-7.0065-3.9496-9.5354-2.529-2.5289-5.9589-3.9496-9.5354-3.9496-3.5764 0-7.0064 1.4207-9.5353 3.9496s-3.9497 5.9589-3.9497 9.5354c0 3.5764 1.4208 7.0064 3.9497 9.5353s5.9589 3.9497 9.5353 3.9497zm0-3c-2.7808 0-5.4477-1.1047-7.414-3.071-1.9663-1.9664-3.071-4.6333-3.071-7.414 0-2.7808 1.1047-5.4477 3.071-7.4141 1.9663-1.9663 4.6332-3.0709 7.414-3.0709s5.4477 1.1046 7.414 3.0709c1.9664 1.9664 3.071 4.6333 3.071 7.4141 0 2.7807-1.1046 5.4476-3.071 7.414-1.9663 1.9663-4.6332 3.071-7.414 3.071zm3.654-35.67005c3.135.204 6.078 1.137 8.181 2.463 4.821 3.04505 6.9 6.39295 8.1 8.49005 1.167 2.0339 3.468 6.549 3.138 11.472-.0863 1.3261-.2607 2.645-.522 3.948l-.12.642c-.168.9719-.273 1.968-.096 4.134.21 2.553-.306 5.3489-1.386 7.8299-1.08 2.4751-2.775 4.761-5.034 6.171-4.695 2.9341-10.35 3.57-15.654 1.4491-2.427-.9691-3.246-1.2-4.164-1.254-.6459-.0239-1.2926-.0179-1.938.0179h-.021c-.87.036-1.986.078-3.537.078-6.819 0-11.355-4.0799-13.67098-8.5319-3.393-6.528-3.3-16.41 4.16098-22.299 2.28-1.8 2.961-2.4 3.729-3.681 1.263-2.1061 2.463-3.756 3.915-5.178 1.455-1.428 3.108-2.57705 5.232-3.74405 3.087-1.698 6.54-2.214 9.687-2.01m-.195 2.994c-2.7-.18-5.562.276-8.049 1.64405-1.962 1.08-3.372 2.076-4.575 3.255-1.203 1.182-2.253 2.5979-3.441 4.578-1.086 1.809-2.184 2.709-4.443 4.491-6.02998 4.761-6.28798 12.93-3.36 18.564 1.935 3.72 5.574 6.915 11.01 6.915 1.494 0 2.568-.0421 3.429-.0751h.057c.828-.03 1.53-.06 2.199-.0149 1.449.09 2.67.495 5.088 1.464 4.383 1.752 9.036 1.2389 12.951-1.2091 1.614-1.008 2.97-2.745 3.873-4.827.906-2.076 1.314-4.374 1.149-6.3839-.198-2.3971-.09-3.6481.129-4.896l.135-.723c.171-.909.354-1.875.468-3.552.27-3.981-1.629-7.83-2.745-9.78-1.083-1.884-2.862-4.77-7.101-7.443-1.62-1.023-4.062-1.82705-6.774-2.00705z"/></g></svg>

<svg width="247" height="451" viewBox="0 0 247 451" fill="none" xmlns="http://www.w3.org/2000/svg">
<path d="M158.875 441V434.585C158.877 429.415 157.692 424.314 155.41 419.675L153.955 416.715C151.026 410.751 149.502 404.195 149.5 397.55V371.95C149.5 368.01 152.65 364.81 156.53 364.81C160.415 364.81 163.565 368.01 163.565 371.95M201.065 441V434.605C201.075 428.89 207.04 425.98 211.92 423.135C217.5 419.88 221.97 414.625 224.035 408.305C225.39 404.145 221.635 400.53 217.145 400.53C212.655 400.53 208.845 404.45 205.595 407.455C205.166 407.857 204.703 408.22 204.21 408.54C197.87 412.585 189.405 407.72 189.405 400.53C189.405 393.34 197.87 388.475 204.21 392.515C205.79 393.345 207.095 394.445 208.135 395.59C210.5 398.19 213.615 400.53 217.185 400.53C221.75 400.53 225.58 396.845 224.225 392.605C222.5 387.283 219.129 382.646 214.598 379.364C210.066 376.082 204.61 374.325 199.015 374.345C194.03 374.345 191.685 375.755 191.685 375.755L202.41 350.735C204.285 346.09 200.925 341 195.98 341C193.35 341 190.945 342.51 189.765 344.9L177.625 369.57M177.625 369.57L175.385 374.12M177.625 369.57V352.905C177.625 348.96 174.475 345.76 170.595 345.76C166.71 345.76 163.565 348.96 163.565 352.905V371.955V388.62" stroke="black" stroke-opacity="0.8" stroke-width="4" stroke-linecap="round" stroke-linejoin="round"/>
<path d="M132 193.008C132.793 193.008 133.554 192.693 134.114 192.132C134.675 191.572 134.99 190.811 134.99 190.018C134.99 189.225 134.675 188.465 134.114 187.904C133.554 187.343 132.793 187.028 132 187.028C131.207 187.028 130.446 187.343 129.886 187.904C129.325 188.465 129.01 189.225 129.01 190.018C129.01 190.811 129.325 191.572 129.886 192.132C130.446 192.693 131.207 193.008 132 193.008ZM146.892 198.02C146.892 198.813 146.577 199.574 146.016 200.134C145.456 200.695 144.695 201.01 143.902 201.01C143.109 201.01 142.348 200.695 141.788 200.134C141.227 199.574 140.912 198.813 140.912 198.02C140.912 197.227 141.227 196.467 141.788 195.906C142.348 195.345 143.109 195.03 143.902 195.03C144.695 195.03 145.456 195.345 146.016 195.906C146.577 196.467 146.892 197.227 146.892 198.02ZM132.016 211.032C132.41 211.032 132.801 210.954 133.166 210.803C133.53 210.652 133.861 210.431 134.14 210.152C134.419 209.873 134.64 209.542 134.791 209.178C134.942 208.813 135.02 208.423 135.02 208.028C135.02 207.634 134.942 207.243 134.791 206.879C134.64 206.514 134.419 206.183 134.14 205.904C133.861 205.625 133.53 205.404 133.166 205.253C132.801 205.102 132.41 205.024 132.016 205.024C131.219 205.024 130.455 205.341 129.892 205.904C129.328 206.467 129.012 207.231 129.012 208.028C129.012 208.825 129.328 209.589 129.892 210.152C130.455 210.716 131.219 211.032 132.016 211.032ZM118 172.824C118 168.444 121.58 164.736 126.12 165.016C143.908 166.112 159.508 172.096 171.728 183.764C175.196 187.072 174.512 192.476 170.916 195.236C165.32 199.556 159.687 203.827 154.016 208.048V215.008C154.016 217.876 151.796 221.008 148.016 221.008C147.339 221.007 146.667 220.899 146.024 220.688V221.02C146.024 223.872 143.8 226.984 140.012 226.984C136.996 226.984 135.008 225 134.308 222.784C132.116 224.424 129.72 226.208 127.58 227.8C123.62 230.748 118 227.92 118 223V172.824ZM146.024 215.008C146.024 216.044 146.8 217.008 148.016 217.008C149.236 217.008 150.016 216.036 150.016 215.008V207.032C150.016 206.717 150.091 206.406 150.234 206.125C150.377 205.844 150.585 205.601 150.84 205.416C153.96 203.152 159.272 199.116 163.976 195.52C153.204 185.268 138.104 179.184 122 179.056V222.996C122.001 223.366 122.105 223.729 122.3 224.043C122.495 224.358 122.773 224.612 123.104 224.778C123.435 224.944 123.805 225.015 124.174 224.983C124.542 224.95 124.895 224.817 125.192 224.596C128.336 222.252 132.044 219.492 134.828 217.404C135.125 217.181 135.478 217.046 135.848 217.012C136.218 216.979 136.59 217.049 136.922 217.215C137.255 217.381 137.534 217.637 137.729 217.953C137.925 218.269 138.028 218.633 138.028 219.004V221.02C138.028 222.008 138.788 222.988 140.012 222.988C140.274 222.995 140.535 222.948 140.779 222.852C141.023 222.756 141.245 222.612 141.432 222.429C141.619 222.245 141.768 222.026 141.869 221.784C141.97 221.542 142.021 221.282 142.02 221.02V215.008C142.02 214.478 142.231 213.969 142.606 213.594C142.981 213.219 143.49 213.008 144.02 213.008C144.55 213.008 145.059 213.219 145.434 213.594C145.809 213.969 146.024 214.478 146.024 215.008ZM168.472 192.068C170.332 190.64 170.472 188.096 168.96 186.652C157.532 175.744 142.88 170.052 125.872 169.004C123.8 168.876 122 170.58 122 172.824V175.056C139.308 175.188 155.612 181.804 167.188 193.056L168.472 192.068Z" fill="black" fill-opacity="0.8"/>
<path d="M30.1918 28.7401C30.3892 28.7708 30.5908 28.7619 30.7847 28.7137C30.9786 28.6655 31.1609 28.5791 31.3209 28.4594C31.481 28.3398 31.6155 28.1895 31.7166 28.0171C31.8177 27.8448 31.8834 27.654 31.9098 27.456C31.9361 27.258 31.9227 27.0566 31.8702 26.8639C31.8177 26.6711 31.7272 26.4908 31.6041 26.3334C31.481 26.1761 31.3276 26.045 31.1531 25.9477C30.9786 25.8504 30.7864 25.789 30.5878 25.767C27.7678 25.392 25.2478 27.5341 25.2478 30.6601C25.2478 31.0579 25.4059 31.4394 25.6872 31.7207C25.9685 32.002 26.35 32.1601 26.7478 32.1601C27.1456 32.1601 27.5272 32.002 27.8085 31.7207C28.0898 31.4394 28.2478 31.0579 28.2478 30.6601C28.2478 29.2891 29.2318 28.611 30.1918 28.7401ZM31.2238 44.8951C34.8003 44.8951 38.2302 43.4743 40.7592 40.9454C43.2881 38.4165 44.7088 34.9865 44.7088 31.4101C44.7088 27.8336 43.2881 24.4036 40.7592 21.8747C38.2302 19.3458 34.8003 17.9251 31.2238 17.9251C27.6474 17.9251 24.2174 19.3458 21.6885 21.8747C19.1596 24.4036 17.7388 27.8336 17.7388 31.4101C17.7388 34.9865 19.1596 38.4165 21.6885 40.9454C24.2174 43.4743 27.6474 44.8951 31.2238 44.8951ZM31.2238 41.8951C28.443 41.8951 25.7761 40.7904 23.8098 38.8241C21.8435 36.8577 20.7388 34.1908 20.7388 31.4101C20.7388 28.6293 21.8435 25.9624 23.8098 23.996C25.7761 22.0297 28.443 20.9251 31.2238 20.9251C34.0046 20.9251 36.6715 22.0297 38.6378 23.996C40.6042 25.9624 41.7088 28.6293 41.7088 31.4101C41.7088 34.1908 40.6042 36.8577 38.6378 38.8241C36.6715 40.7904 34.0046 41.8951 31.2238 41.8951ZM34.8778 6.22505C38.0128 6.42905 40.9558 7.36205 43.0588 8.68805C47.8798 11.7331 49.9588 15.081 51.1588 17.1781C52.3258 19.212 54.6268 23.7271 54.2968 28.6501C54.2105 29.9762 54.0361 31.2951 53.7748 32.5981L53.6548 33.2401C53.4868 34.212 53.3818 35.2081 53.5588 37.3741C53.7688 39.9271 53.2528 42.723 52.1728 45.204C51.0928 47.6791 49.3978 49.965 47.1388 51.375C42.4438 54.3091 36.7888 54.945 31.4848 52.8241C29.0578 51.855 28.2388 51.6241 27.3208 51.5701C26.6749 51.5462 26.0282 51.5522 25.3828 51.588H25.3618C24.4918 51.624 23.3758 51.666 21.8248 51.666C15.0058 51.666 10.4698 47.5861 8.15382 43.1341C4.76082 36.6061 4.85382 26.7241 12.3148 20.8351C14.5948 19.0351 15.2758 18.4351 16.0438 17.1541C17.3068 15.048 18.5068 13.3981 19.9588 11.9761C21.4138 10.5481 23.0668 9.39905 25.1908 8.23205C28.2778 6.53405 31.7308 6.01805 34.8778 6.22205M34.6828 9.21605C31.9828 9.03605 29.1208 9.49205 26.6338 10.8601C24.6718 11.9401 23.2618 12.9361 22.0588 14.1151C20.8558 15.2971 19.8058 16.713 18.6178 18.6931C17.5318 20.5021 16.4338 21.4021 14.1748 23.1841C8.14482 27.9451 7.88682 36.1141 10.8148 41.7481C12.7498 45.4681 16.3888 48.6631 21.8248 48.6631C23.3188 48.6631 24.3928 48.621 25.2538 48.588H25.3108C26.1388 48.558 26.8408 48.528 27.5098 48.5731C28.9588 48.6631 30.1798 49.0681 32.5978 50.0371C36.9808 51.7891 41.6338 51.276 45.5488 48.828C47.1628 47.82 48.5188 46.083 49.4218 44.001C50.3278 41.925 50.7358 39.627 50.5708 37.6171C50.3728 35.22 50.4808 33.969 50.6998 32.7211L50.8348 31.9981C51.0058 31.0891 51.1888 30.1231 51.3028 28.4461C51.5728 24.4651 49.6738 20.6161 48.5578 18.6661C47.4748 16.7821 45.6958 13.8961 41.4568 11.2231C39.8368 10.2001 37.3948 9.39605 34.6828 9.21605Z" fill="black" fill-opacity="0.8"/>
</svg>
